X:1
T:Title
%%score { 1 | 2 } { 3 | 4 } { 5 | 6 } { 7 | 8 }
L:1/8
Q:1/4=90
M:none
K:Ab
V:1 treble nm="S."
V:2 treble 
V:3 treble nm="A."
V:4 treble 
V:5 treble-8 nm="T."
V:6 treble-8 
V:7 bass nm="B."
V:8 bass 
V:1
"^From Psalm 47" z8"^O clap your hands" E2 EE F2 F2 G4 E2"^Orlando Gibbons""^(1583-1625)" A4 | %1
w: O clap your hands to- ge- ther, all|
 F2 B2 G2 c2 cc c2 c2 d3 e f2 e2 | e2 e4 e2 e2"^- 2 -" e2 z8 | z2 B2 B6 BB B6 BB | %4
w: ye peo- ple, O clap your hands to- ge- ther, all ye|peo- ple, ye peo- ple;|O sing un- to God with the|
 e2 c2 c2 c2 c2"^- 3 -" z8 EE A2 | B2 c2 A2 d2 B2 c2 B3 E e4 c2 B4 | %6
w: voice of me- lo- dy. For the Lord|is high and to be fear- ed, and to be fear-|
 A2 z4 z2 B2 c3"^- 4 -" B c2 d2 B2 f6 (ed) | c4 c2 d4 B2 A4 z8 | %8
w: \-ed; He is the great King of all the *|earth, of all the earth,|
 z4 A2 B3 A B2"^- 5 -" c4 z2 c2 B2 Ee e2 =d2 | e4 z2 B4 BB B4 z2 e4 ee e3 A A2 A2 | %10
w: he is the great King, the great King of all the|earth. He shall sub- due, he shall sub- due the peo- ple,|
 z4 z2 e2"^- 6 -" f2 f2 e3 e e2 GG c2 | B4 A3 A G2 B2 E2 e4 | x20 | x32 | x22 | x22 | x22 | %17
w: the peo- ple un- der us, and the na-|\-tions un- der our feet, our feet.||||||
 z2 B2 G2 E2 e3 d c3 B A3 G F2 B4 A2 G2 GG | A2 F2 z8"^- 8 -" z2 BB c2 dd e2 | %19
w: He shall choose out an he- ri- tage for us, ev'n the wor- ship of|Ja- cob, ev'n the wor- ship of Ja-|
 f2 e6 c2 (BA A4 G2) !fermata!A4 | E2 EE A4 B"^- 9 -"cdB c6 BA d2 | ff e2 dc B4 c4 z8 | %22
w: \-cob, whom he lov * * * ed.|God is gone up with a mer- ry noise, and the Lord|with the sound of the trum- pet,|
 z8"^- 10 -" z4 A2 AA d4 x2 | ef_ge f2 ff e2 ed _c4 x12 | %24
w: God is gone up|with a mer- ry noise, and the Lord with the sound|
 BB (d4 !courtesy!=c2)"^- 11 -" d2 z4 z2 E2 EE | A4 BcdB c2 BA d2 ff e2 x6 | %26
w: of the trum * pet, God is gone|up with a mer- ry noise, and the Lord with the sound|
 cc B4 c2"^- 12 -" cc d2 c2 z2 z c f2 e2 x6 | z2 z c e2 Be e2 =d2 e4 z8 z2 BB | %28
w: of the trum- pet. O sing prais- es, sing prais- es,|sing prais- es un- to our God: O sing|
 c2 B2 z2 z B"^- 13 -" c2 B2 z2 z B c2 e2 x2 | e2 =d2 e2 z8 z2 z e_dc B3 c x8 | %30
w: prais- es, sing prais- es, un- to the|Lord our King, un- to the Lord our|
 A2 z8"^- 14 -" c2 d2 ef e2 d2 d2 c2 d2 z2 | z8 z2 ee c2 A2 ABcA B4 A2 x8 | %32
w: King. For God is the King of all the earth:|sing ye prais- es with the un- der- stand- ing,|
 A2 B2 cc B2"^- 15 -" A2 Bc d4 c2 d2 d2 x4 | z4 c2 e4 B4 d3 d A2 c4 c4 z4 | %34
w: sing prais- es, sing prais- es with the un- der- stand- ing.|God reign- eth o- ver the hea- then:|
 z2 c2 ff f2"^- 16 -" f2 e2 d2 d2 c4 z2 x2 | z4 c2 dd d2 d2 c2 B3 =A B2 B2 A4 z4 z2 _AA | %36
w: God sit- teth up- on his ho- ly seat,|God sit- teth up- on his ho- ly, ho- ly seat, sit- teth|
 e4 c2 (BA) B2 E2"^- 17 -" e3 e e4 z4 z2 x2 | z4 c2 c2 BA e2 dc f2 e2 z4 x12 | %38
w: on his ho * ly, his ho- ly seat.|For God, which is high- ly ex- alt- ed,|
 z8 z2"^- 18 -" c2 B e2 =d e2 ff e2 _dd | c4 z8 z2 e3 f =d2 e2 c2 f2 | %40
w: doth de- fend the earth, as it were with a|shield. Glo- ry be to the Fa-|
 B2 c2 AF B2 z4"^- 19 -" e3 f =d2 e3 c _d2 B2 z2 | c2 B6 B2 B2 B2 c2 B2 A2 z4 e2 c2 e2 e2 =d2 | %42
w: \-ther, and to the Son, glo- ry be to the Fa- ther,|and to the Son, and to the Son, and to the Ho- ly|
 e4 z8"^- 20 -" z2 cc d2 e2 f2 e2 | A2 c2 F2 A2 z4 z2 ee x16 | %44
w: Ghost; As it was in the be-|\-gin- ning, is now, as it|
 d2 c2 f2 e2 d"^- 21 -"d c2 F2 z8 z2 | z8 z2 e2 ff B2 B4 z4 | %46
w: was in the be- gin- ning, is now,|and ev- ver shall be,|
 z2 c2 c2 c2"^- 22 -" c6 f2 ee d2 c3 c | B2 A2 B2 B2 c4 A2 d4 c2 B2 B2 c8 | %48
w: world with- out end, and ev- er shall be, world|with- out end. A- men, world with- out end. A- men.|
V:2
 z8 z4 A2 AA B2 B2 c2 c2 z2 | z4 z2 e2 ee e2 e2 f3 e d2 c2 | (B2 A2 B4) c4 z2 c2 e2 cA | %3
w: O clap your hands to- ge- ther,|O clap your hands to- ge- ther, all ye|peo * * ple; O sing un- to|
 d4 B2 c2 =d2 e2 e2 d2 e4 | z8 z2 cc d2 B2 e4 z2 | z8 e4 d4 c2 B2 E2 z2 B2 | %6
w: God with the voice of me- lo- dy.|For the Lord is high|and to be fear- ed; He|
 c3 B c2 dd e2 e2 A6 G2 F4 z4 | z8 d2 e3 d e2 f4 z fed | c4 z8 A2 c3 B c2 d2 B2 B2 B2 | %9
w: is the great King of all the earth, the earth,|he is the great King of all the|earth, he is the great King of all the|
 B4 z4 z2 B4 BB B4 z2 e4 ee f2 f2 | ed d4 c2 d2 z4 BB c2 B2 ec | f2 e3 d c2 B4 A3 A G2 | A4 x16 | %13
w: earth. He shall sub- due, he shall sub- due the|peo- ple un- der us, and the na- tions un- der|our feet, the na- tions un- der our|feet.|
 x32 | x22 | x22 | x22 | z4 B2 G2 E2 e3 d c3 (B A2) d4 c4 c4 | z2 cc d2 ee d2 B2 f4 e2 d2 c2 | %19
w: ||||He shall choose out an he- ri * tage for us,|ev'n the wor- ship of Ja- cob, whom he lov- ed,|
 B4 A2 GE e4 c2 B4 !fermata!c4 | x22 | z8 z8 z2 E2 EE | A4 BcdB c4 de f4 ed x2 | %23
w: whom he lov- ed, whom he lov- ed.||God is gone|up with a mer- ry noise, and the Lord with the|
 c(de)c d2 A2 z4 A2 AA x12 | d4 ef_ge f2 e3 d d4 cc | d6 BB e2 ee f4 B2 x6 | %26
w: sound of * the trum- pet, God is gone|up with a mer- ry noise, and the Lord with the|sound of the trum- pet, the trum- pet,|
 e2 e4 e4 z2 cc d2 c2 z2 z c x6 | f2 e2 z8 z B e2 c2 c2 d2 c2 B4 | z2 BB c2 B2 z2 z B c2 B2 z4 x2 | %29
w: the trum- pet. O sing prais- es, sing|prais- es, sing prais- es un- to our God:|O sing prais- es, sing prais- es|
 z2 B2 c2 e2 e2 =d2 e4 z8 x8 | z edc B2 B2 c4 z8 z2 e2 f2 cd | %31
w: un- to the Lord our King,|un- to the Lord our King. For God is the|
 e2 B2 B2 B2 B4 z4 z2 ee d2 B2 cd x8 | ec f2 e2 d3 d d2 d2 ef_ge f2 f2 x4 | %33
w: King of all the earth: sing ye prais- es with the|un- der- stand- ing, sing ye prais- es with the un- der- stand- ing.|
 z2 F2 c3 c G2 GG B4 F4 z2 f3 f =e2 f3 f | z8 z2 c2 ff f2 f2 e2 d2 x2 | %35
w: God reign- eth o- ver the hea- then, o- ver the hea- then:|God sit- teth up- on his ho-|
 d2 c4 z2 B2 ff f2 f2 e2 d2 d2 c4 z4 z2 c2 | ee e2 e2 =d2 e2 (c2 B4) c2 c2 c2 BA e2 x2 | %37
w: \-ly seat, God sit- teth up- on his ho- ly seat, God|sit- teth up- on his ho- ly * seat. For God, which is high-|
 dc f2 e2 z8 z2 c2 B e2 =d x12 | e2 ff e2 dd c2 z8 z4 z2 | z2 e3 f =d2 e2 c2 (f2 B2) c2 z8 | %40
w: \-ly ex- alt- ed, doth de- fend the|earth, as it were with a shield.|Glo- ry be to the Fa * ther,|
 e3 f =d2 e3 c (_d2 B2) c2 z8 z4 | c2 f2 (e4 =d2) e4 z2 B2 c2 B2 B4 z8 | %42
w: glo- ry be to the Fa * ther,|and to the * Son, and to the Son,|
 z2 e2 d2 c2 B3 B c4 z2 cc d2 e2 | f2 e2 d2 c2 F2 A2 z4 x16 | z2 ee d2 c2 f2 e2 dd c2 B2 B2 BB B2 | %45
w: and to the Ho- ly Ghost; As it was in|the be- gin- ning, is now,|as it was in the be- gin- ning, is now, and ev- er shall|
 c2 B2 B2 B2 B4 z4 z2 d2 cc B2 | =A2 c3 G(_AB) c2 c2 c2 z8 e2 | e2 e2 e6 cc f4 e4 e4 e8 | %48
w: be, world with- out end, and ev- er shall|be, world with- out * end. A- men, world|with- out end, world with- out end. A- men.|
V:3
 z8 z8 E2 ED C2 E4 | =D2 E4 z4 A2 AA A3 A A2 A2 | z2 A4 G2 A2 A2 E2 E4 EF | %3
w: O clap your hands to-|\-ge- ther, O clap your hands to- ge- ther,|all ye peo- ple; O sing un- to|
 _G2 GA B6 (A!courtesy!_G) F2 F2 =G4 | G2 F4 =E2 F2 A2 F2 G3 _E A4 | %5
w: God with the voice of * me- lo- dy,|of me- lo- dy. For the Lord is high|
 G2 E2 F2 DD z2 CC D2 B,2 E3 B,CA, B,2 B,2 | z8 z2 E2 F3 E F2 GG A2 D4 B,2 | %7
w: and to be fear- ed, for the Lord is high and to be fear- ed;|He is the great King up- on all the|
 E2 C4 F4 ED C2 C2 F3 E F2 G2 | A3 G F2 D2 E4 z8 z8 | z2 E4 EE E4 z2 E4 EE E4 z2 A4 AA | %10
w: earth, up- on all the earth, he is the great King|up- on all the earth.|He shall sub- due, he shall sub- due, he shall sub-|
 B2 B2 A4 F2 A3 (A G2) A2 z4 | FF B,2 E2 z2 E3 D C2 B,4 | E2 C2 A,2"^- 7 -" A3 G F3 E D3 (E F2) | %13
w: \-due the peo- ple un- der * us,|and the na- tions un- der our feet.|He shall choose out an he- ri- tage for *|
 E6 E2 E2 E2 E2 E2 F6 (G3 F) F4 =E2 | F2 A4 G2 F2 E4 D2 C2 B,3 A, | %15
w: us, He shall choose out an he- ri * tage for|us, ev'n the wor- ship of Ja- cob, the|
 F,B,(G,E,) E4 E2 G,2 A,2 B,4 !fermata!A,4 | z4 E2 EF G2 FG A2 F2 E2 EF(F"^__"G) | %17
w: wor- ship of * Ja- cob, whom he lov- ed.|God is gone up with a mer- ry noise, with a mer *|
"^__" (AF) B2 A2 A2 G2 A3 A F2 B3 A _G2 x10 | F2 F3 E D2 C3 B, A,2 D4 B,2 x2 | E4 D4 z8 x6 | %20
w: * ry noise, and the Lord with the sound of the trum-|\-pet, and the Lord with the sound of the|trum- pet,|
 D2 DD _G4 AB_cA B6 !courtesy!_GG x2 | F6 B2 E(F_G)E A2 F B2 =G x4 | %22
w: God is gone up with a mer- ry noise, and the|Lord, the Lord with * the sound, the sound of|
 E2 E4 E2 AA A2 A2 z2 z A A2 A2 | z2 z A G2 GG F2 F2 E2 z G A2 E2 z4 z2 GG | %24
w: the trum- pet. O sing prais- es, sing prais- es,|sing prais- es un- to our God: sing prais- es, O sing|
 A2 G2 z2 z G A2 G2 z2 z2 z BAG | F3 B, E2 z4 z2 z BAGFE A4 G2 | %26
w: prais- es, sing prais- es, un- to the|Lord our King, un- to the Lord our King, our|
 A2 z8 E2 A2 _GF A2 F2 E2 E2 D2 z2 | z2 E2 E2 =D2 E4 z2 EEF!courtesy!=G A4 G2 F2 x2 | %28
w: King. For God is the King of all the earth,|of all the earth: sing ye prais- es with the un-|
 E2 (D2 E2) F4 _G2 A2 B2 E2 A2 F2 | z2 F2 C4 E4 B,4 F2 A4 F2 G4 z2 F2 | %30
w: \-der- stand * ing, with the un- der- stand- ing.|God reign- eth o- ver the hea- then: God|
 AA A2 F2 F2 D2 E2 F4 z2 E2 A,2 x6 | (DB,) C2 C2 B,2 F2 FF(FE) D2 C2 B,2 B,2 C6 F2 E4 | %32
w: sit- teth up- on his ho- ly seat, up- on|his * ho- ly seat, God sit- teth up * on his ho- ly seat, sit- teth|
 E4 A4 G2 A4 G2 A4 z4 z2 | z4 E2 E2 EA, A2 FA A2 A2 z4 x10 | z8 z2 EE B2 A2 G2 FFGA B2 | %35
w: up- on his ho- ly seat.|For God, which is high- ly ex- alt- ed,|doth de- fend the earth, as it were with a|
 E4 z4 E3 F D2 E2 (C2 F2) B,2 C2 z2 x8 | z2 A3 B G2 AA F2 GG(EC) F2 z2 E2 D2 F2 E2 | %37
w: shield. Glo- ry be to the * Fa- ther,|glo- ry be to the Fa- ther, the Fa * ther, and to the Son,|
 z4 E2 F2 F2 G3 G A2 B2 E4 z2 B2 A2 G2 F2 F2 | G3 A FG A4 G2 A4 z4 z2 AA | %39
w: and to the Son, and to the Son, and to the Ho- ly|Ghost, and to the Ho- ly Ghost; As it|
 F2 C2 D2 A,2 DD A,2 A4 x10 | z4 z2 E2 AA A2 A2 A2 F2 E2 =D2 G2 x4 | %41
w: was in the be- gin- ning, is now,|and ev- er shall be, world with- out end, and|
 FE (E4 =D2) E2 E2 BB G2 F4 z4 x10 | z2 A2 G2 F2 F2 =E2 F3 A_EE F2 E4 | %43
w: ev- er shall * be, and ev- er shall be,|world with- out end. A- men, and ev- er shall be,|
 E3 F G A2 G A6 F2 B2 E2 E4 E8 | x24 | x24 | x24 | x32 | %48
w: world with- out end. A- men, with- out end. A- men.|||||
V:4
 z8 z8 z4 E2 EE F2 | F2 G2 E2 A2 AA A2 A2 A3 AF(D E2) | E8 C4 z2 A2 A2 AA | %3
w: O clap your hands|to- ge- ther, O clap your hands to- ge- ther, all ye *|peo- ple; O sing un- to|
 B6 A_G F2 E2 F2 F2 E3 E | E2 F2 G2 GG A2 F2 B4 z2 E2 F2 | E2 A4 F2 G2 F4 B,2 (CD) E4 z4 | %6
w: God with the voice of me- lo- dy, of|me- lo- dy. For the Lord is high and to|be fear- ed, and to be fear * ed;|
 E2 F3 E F2 G2 A3 (B A2) D2 E2 F4 z2 z2 | z2 E2 F3 (E F2) G2 A2 A3 G F3 F B,2 | %8
w: He is the great King up- on * all the earth,|he is the * great King up- on all the earth,|
 E2 F3 E F2 G4 z2 E2 A2 AG F2 GE F2 F2 | G4 z2 G4 GG G4 z2 G4 AA A4 F4 | %10
w: he is the great King, he is the great King up- on all the|earth. He shall sub- due, he shall sub- due the|
 _G3 F E2 E2 D2 z4 EE E2 E2 EA | F2 B2 E2 E4 z8 | z2 E2 C2 A,2 A3 G (F3 E)(FG) A2 | %13
w: peo- ple un- der us, and the na- tions un- der|our feet, our feet.|He shall choose out an he * ri * tage|
 (G3 F) E4 z2 E4 A3 G F3 EDB, E2 C2 C4 | z2 CC F2 EE F2 GG A2 B2 A2 F2 AE | %15
w: for * us, he shall choose out an he- ri- tage for us,|ev'n the wor- ship of Ja- cob, whom he lov- ed, he lov- ed,|
 z4 z2 z B,CD E6 E2 E2 !fermata!E2 | x22 | x32 | A,2 A,A, D4 EF_GE F6 FF x2 | %19
w: of Ja- cob, whom he lov- ed.|||God is gone up with a mer- ry noise, and the|
 A4 F2 F2 _G2 GD A2 EF x6 | _G6 GGFDEF !courtesy!_G6 E2 x2 | z A,A,A, D4 E>FEC F2 FF B2 x4 | %22
w: Lord with the sound of the trum- pet, the|sound of the trum- pet, of the trum- pet,|God is gone up with a mer- ry noise, and the Lord|
 AA A2 GG A2 A2 z2 AA A2 A2 z2 z A | A2 A2 z4 z2 z F G2 E3 E A4 A2 G2 z2 | %24
w: with the sound of the trum- pet. O sing prais- es, sing|prais- es, sing prais- es un- to our God:|
 z2 GG A2 G2 z2 z G A2 G2 z4 | z2 z2 z BAG F2 F2 E4 z CDE E2 E2 | %26
w: O sing prais- es, sing prais- es|un- to the Lord our King, un- to the Lord, un-|
 FE A4 G2 A3 E F2 B,DA,A, A4 A2 A2 (GF) | E2 G2 F4 G4 A4 z8 z2 x2 | z4 AA F2 D2 DEFD _G4 F4 | %29
w: \-to the Lord our King, For God is the King of all the earth, the *|King of all the earth.|sing ye prais- es with the un- der- stand- ing.|
 F2 A4 E4 !courtesy!=G4 F4 F2 EC c3 c G2 A2 A2 | z2 F2 AA A2 A2 A2 A2 A2 A3 GFF x6 | %31
w: God reign- eth o- ver the hea- then, o- ver the hea- then:|God sit- teth up- on his ho- ly seat, up- on his|
 B4 =A2 B4 z8 z4 z2 F2 _AA A2 A2 A2 | A2 E2 E2 F2 B,2 C2 E2 E2 E2 E2 E2 EA, A2 | %33
w: ho- ly seat, God sit- teth up- on his|ho- ly seat, up- on his ho- ly seat. For God, which is high-|
 FA A2 A2 z8 z2 EE B2 A2 x10 | G2 AF G A2 G A2 z8 z4 z2 | z2 EE A2 FF B2 A2 z4 A3 B G2 A2 F2 x8 | %36
w: \-ly ex- alt- ed, doth de- fend the|earth, as it were with a shield.|Glo- ry be to the Fa- ther, glo- ry be to the|
 B2 A2 z8 z2 A3 B G2 A2 F3 (B G2) | A2 F2 B2 B4 E4 z2 E2 E2 G2 F2 G2 E2 E2 F2 F2 | %38
w: Fa- ther, glo- ry be to the Fa *|\-ther, and to the Son, and to the Son, and to the Ho- ly|
 E4 z8 z4 z2 AA D2 C2 | D2 A,2 D2 E2 (F2 E2) A,2 A,2 x10 | AA A2 A4 z4 z2 E2 FF G2 F2 B2 x4 | %41
w: Ghost; As it was in|the be- gin- ning, is * now, and|ev- er shall be, and ev- er shall be, world|
 A2 (G2 F4) G2 G2 FF E2 =D2 F2 F2 F2 x10 | F4 z8 z2 F2 AA A2 A4 | B2 E4 E2 E2 A4 B3 A A4 G2 A8 | %44
w: with- out * end, and ev- er shall be, world with- out|end, and ev- er shall be,|world with- out end, world with- out end. A- men.|
 x24 | x24 | x24 | x32 | %48
w: ||||
V:5
 A2 AA B2 B2 c3 B(AB)(cd) B2 B2 A6 | A2 G2 G2 e2 ee c2 A2 A3 c A2 A2 | E2 E4 E2 E2 E2 z8 | %3
w: O clap your hands to- ge- ther, all * ye * peo- ple, all|ye peo- ple, O clap your hands to- ge- ther, all ye|peo- ple, ye peo- ple;|
 z2 B2 _GG G2 B6 BB B3 B | E2 A2 G2 G2 F4 z4 z2 cc d2 | B2 e2 d4 e3 (c f2) e6 e2 z2 e2 | %6
w: O sing un- to God with the voice, the|voice of me- lo- dy. For the Lord|is high and to be * fear- ed; He|
 A3 G (A2 F2) E2 z8 z2 A2 B3 A B2 | c3 (B A2) F2 B3 E E4 z8 | z8 E2 e3 d e2 f2 eedB B4 B2 | %9
w: is the great * King, he is the great|King up * on all the earth,|he is the great King up- on all the earth, the|
 B4 z2 e4 ee e4 z2 e4 ee c3 c A2 A2 | z4 z2 A2 A2 d2 B2 B2 A2 e3 e | d4 (cA) e2 E2 (G2 A2) B4 | %12
w: earth. He shall sub- due, he shall sub- due the peo- ple,|the peo- ple un- der us, and the|na- tions * un- der our * feet.|
 z2 e4 ee f2 c2 d3 c B2 A2 | e4 z4 e2 c3 B A4 A2 B3 B E2 (F2 G4) | F4 z8 z4 z2 ff e2 | %15
w: He shall choose out an he- ri- tage for|us, he shall choose out an he- ri- tage for *|us, ev'n the wor-|
 d4 c2 B2 A2 B2 (cd) (e2 E2) !fermata!E4 | z4 A2 AA e2 de A3 A A2 GF B2 | %17
w: \-ship of Ja- cob whom he * lov * ed.|God is gone up with a mer- ry noise, and the Lord|
 FF G2 AA e6 c2 de f2 e4 x10 | z8 z2 A4 F4 B2 x2 | E4 D2 d2 _G3 B E4 x6 | z8 A2 AA d4 ef_ge x2 | %21
w: with the sound of the trum- pet, of the trum- pet,|God is gone|up with a mer- ry noise,|God is gone up with a mer- ry|
 f3 (e d2) d2 c2 ee d2 dc B2 x4 | cA B4 A2 ee f2 e2 z2 z e d2 c2 | z2 z c B2 eB c2 B2 B4 z8 z2 ee | %24
w: noise, and * the Lord with the sound of the trum-|\-pet, the trum- pet. O sing prais- es, sing prais- es,|sing prais- es un- to our God: O sing|
 c2 e2 z2 z e c2 e2 z2 z dcBce | B4 z8 z Bce A3 A B4 | z cde e2 e2 e4 z8 z2 e2 A2 AB | %27
w: prais- es, sing prais- es un- to the Lord our|King, un- to the Lord our King,|un- to the Lord our King. For God is the|
 c2 G2 B2 B2 B4 A4 z2 cc f2 e3 d x2 | c2 B2 E2 F_GAF B2 A2 !courtesy!_G4 A4 | %29
w: King of all the earth: sing, sing ye prais- es with|the un- der- stand- ing, with the un- der- stand- ing.|
 B2 A4 !courtesy!=G4 E3 E F4 (D2 E2) F2 z C c2 c4 | z8 z8 z2 c2 ff x6 | %31
w: God reign- eth o- ver the hea * then, the hea- then:|God sit- teth|
 f2 f3 e d2 B2 d2 f2 (B2 c2) F4 F4 z2 A2 cc c2 | A2 B2 (A4 e6) B2 A4 z4 z2 | %33
w: up- on his ho- ly seat, his ho * ly seat, God sit- teth up-|\-on his ho * ly seat.|
 z4 c2 c2 efec(de)(fd) e2 z4 x10 | z8 z2 cc e2 A2 B2 B2 ecdB | c4 z8 z8 e3 f d2 x8 | %36
w: For God, which is high- ly ex * alt * ed,|doth de- fend the earth, as it were with a|shield. Glo- ry be|
 ed c2 ff B2 c2 B4 z2 B3 c A2 B2 F2 GE | z2 z F GE B4 (GE) e2 (e3 d) c2 z4 B2 c2 B2 B3 B | %38
w: to the Fa- ther, and to the Son, glo- ry be to the Fa- ther,|and to the Son, and * to the * Son, and to the Ho- ly|
 B2 z8 z8 z4 z2 | z4 z2 cc d2 e2 f2 e2 x10 | A3 A (d2 e2) A4 z8 z2 e2 x4 | %41
w: Ghost;|As it was in the be-|gin- ning, is * now, and|
 (c2 e2) B4 z2 B2 BB B2 B2 B2 c2 d2 x10 | c3 F G2 (c3 B G2) =A2 _A2 cc F2 A3 e | %43
w: is * now, and ev- er shall be, world with- out|end, world with- out * * end, and ev- er shall be, world|
 B2 c2 e4 c4 d3 c B2 c(A B4) A8 | x24 | x24 | x24 | x32 | %48
w: with- out end. A- men, with- out end. A * men.|||||
V:6
 z8 z8 z8 A2 | AA B2 B2 c2 c2 e2 ee d2 A2 ABcA | B2 c2 B2 B2 A2 A2 z2 c2 c2 cc | %3
w: O|clap your hands to- ge- ther, O clap your hands to- ge- ther, all ye|peo- ple, all ye peo- ple; O sing un- to|
 B4 d2 e2 fBeE B4 z2 BB | c6 c2 c2 f(f d2) e2 c2 A2 z2 | GG A2 F2 B4 z2 B2 B2 A2 BG(Ac) e4 | %6
w: God with the voice of me- lo- dy. For the|Lord is high and to * be fear- ed,|for the Lord is high, is high and to be fear * ed;|
 z8 e2 A3 G A2 F2 B2 d4 D4 | E4 z8 z4 c2 d3 d e2 | e2 c2 f2 f2 e3 d c4 z2 c2 f2 eG B3 A | %9
w: He is the great King of all the|earth, he is the great|King of all the earth, the earth, the great King of all the|
 G4 z4 z2 e4 ee e4 z2 e4 ee d3 c | B2 d2 (cB) A2 A4 e2 e2 c2 z4 | B3 c c3 def e4 e2 B2 | %12
w: earth. He shall sub- due, he shall sub- due the|peo- ple un * der us, un- der us,|and the na- tions un- der our feet. He|
 c6 c2 A4 z ABc d3 c | B6 B2 c3 B A2 c2 c4 z2 BB G2 AB c4 | c4 z4 z2 ee c2 BB e2 B2 z2 | %15
w: shall choose out an he- ri- tage for|us, an he- ri- tage for us, ev'n the wor- ship of Ja-|\-cob, ev'n the wor- ship of Ja- cob,|
 z BBB (cd) e2 E(FG)(E e3) (d e2) !fermata!e4 | x22 | x32 | z8 E2 EE A4 BcdB x2 | %19
w: the wor- ship of * Ja- cob, whom * he * lov * ed.|||God is gone up with a mer- ry|
 c2 BA (de)fd e2 E4 A2 x6 | (DB,) B4 _G2 d2 _c2 B3 A !courtesy!_G4 x2 | %21
w: noise, and the Lord * with the sound of the|trum * pet, God is gone up, with a|
 A2 F2 B4 z (AB)cd(AB>)A!courtesy!=GE x4 | e3 (B e2) c4 z2 ee f2 e2 z2 z e | %23
w: mer- ry noise, and * the Lord with * the sound of|the trum * pet. O sing prais- es, sing|
 d2 c2 z8 z2 z e e2 cc f2 e2 e2 z2 | z2 ee c2 e2 z2 z e c2 e2 z4 | %25
w: prais- es, sing prais- es un- to our God:|O sing prais- es, sing prais- es|
 z4 z Bce B2 B2 B2 z2 z EFAG(F E2) | A4 B4 A4 A2 eB c2 F2 A6 z2 | z8 z2 BBcdec f2 e2 B2 B2 z2 x2 | %28
w: un- to the Lord our King, un- to the Lord our *|King. For God is King of all the earth:|sing ye prais- es with the un- der- stand- ing,|
 AA F2 A2 d6 d2 B2 e2 A4 | d2 c2 f2 e4 e4 d4 d2 c8 c4 | z2 c2 dd d2 F2 A2 A3 B c4 z2 x6 | %31
w: sing ye prais- es with the un- der- stand-|\-ing. God reign- eth o- ver the hea- then:|God sit- teth up- on his ho- ly seat,|
 z4 f2 ff f2 B2 c2 d2 e2 f2 f2 f4 z8 | z8 z8 z2 c2 c2 efec | (de)(fd) e2 z8 z2 cc e2 A2 x10 | %34
w: God sit- teth up- on his ho- ly, ho- ly seat.|For God, which is high- ly|ex * alt * ed, doth de- fend the|
 B2 fd e2 fB e2 z8 z4 z2 | z2 AG F2 FFEE c2 d2 B2 A2 z4 (A3 B) x8 | %36
w: earth, as it were with a shield.|Glo- ry be to the Fa- ther, and to the Son, glo *|
 G2 A2 (F2 E2) C2 F2 E2 z4 z2 e3 (f =d2) e2 | (c2 d2) B2 B4 B4 z2 e2 e2 e2 =d2 z8 z2 | %38
w: \-ry be to * the Fa- ther, glo- ry * be|to * the Fa- ther, and to the Son,|
 z2 c2 B2 A2 B2 B2 A4 z8 | z8 z2 cc d2 e2 x10 | f2 e2 A3 A (d2 e2) f2 e2 =dd e2 B2 G2 x4 | %41
w: and to the Ho- ly Ghost;|As it was in|the be- gin- ning, is * now, and ev- er shall be, world|
 A2 E2 B4 E3 B F2 GE B4 z2 B2 x10 | c6 c2 c4 c2 dA A2 A2 z2 A2 | e2 c2 B4 z2 A3 FBA(GE) e4 e2 c8 | %44
w: with- out end, world with- out end. A- men, and|ev- er shall be, world with- out end, world|with- out end, world with- out end. A * men, A- men.|
 x24 | x24 | x24 | x32 | %48
w: ||||
V:7
 z8 A,2 A,G, F,2 F,2 E,2 E,2 z4 z2 | z4 z2 A,,2 A,,A,, A,,2 A,,2 D,3 C, D,2 A,2 | %2
w: O clap your hands to- ge- ther,|O clap your hands to- ge- ther, all ye|
 (G,2 A,2 E,4) A,4 z2 A,2 A,2 A,A, | _G,6 F,E, B,2 E,2 B,,2 B,,2 E,3 E, | C,2 F,2 C4 z8 z4 z2 | %5
w: peo * * ple; O sing un- to|God with the voice of me- lo- dy, of|me- lo- dy.|
 E,2 C,2 D,3 B,, E,2 (A,,2 B,,2) G,,2 A,,2 E,6 E,2 | z8 z8 z2 E,2 F,3 E, F,2 G,G, | %7
w: For the Lord is high and * to be fear- ed;|He is the great King up-|
 A,3 (G, F,E,D,C, B,,2) E,2 A,,4 A,2 B,3 A, B,2 | C2 A,A, (D3 C B,2) E,2 A,4 z4 z2 E,E, B,,2 B,,2 | %9
w: \-on all * * * * * the earth, he is the great|King up- on all * * the earth, up- on all the|
 E,4 z2 E,4 E,E, E,4 z2 E,4 C,C, C,4 D,4 | _G,,2 G,,2 A,,2 A,,2 D,2 z4 E,E, A,2 E,2 C,C, | %11
w: earth. He shall sub- due, he shall sub- due the|peo- ple un- der us, and the na- tions un- der|
 D,2 E,2 z8 z4 E,2 | C,2 A,,2 A,3 G, F,3 E, D,6 D,2 | E,8 x24 | %14
w: our feet. He|shall choose out an he- ri- tage for|us,|
 z2 A,A, B,2 CC D2 E,2 F,2 G,2 A,2 B,2 E,E, | F,2 G,2 A,2 E,2 A,,2 E,8 !fermata!A,4 | x22 | %17
w: ev'n the wor- ship of Ja- cob, whom he loved, the wor- ship|of Ja- cob, whom he lov- ed.||
 z4 z2 E,2 E,E, A,4 B,CDB, C2 B,2 x10 | D2 C2 B,3 F, A,3 (_G,F,)E,(D,C,B,,A,, B,,2) x2 | %19
w: God is gone up with a mer- ry noise, and|the Lord with the sound of * the trum * * * *|
 A,,4 z2 D,2 _C,3 (B,, A,,4) x6 | _G,,2 (_G,F,) E,D, E,2 D,2 A,,2 z4 z2 E,2 x2 | %21
w: \-pet, and the Lord *|with the * sound of the trum- pet, of|
 D,3 (C, B,,4) A,,4 z2 F,F, !courtesy!=G,2 x4 | A,A, E,2 E,2 z2 A,A, D2 A,2 z2 z A, D,2 A,2 | %23
w: the trum * pet, with the sound|of the trum- pet. O sing prais- es, sing prais- es,|
 z2 z A, E,2 E,E, A,2 B,2 E,4 z8 z2 E,E, | A,2 E,2 z2 z E, A,2 E,2 z2 z B,A,G,F,E, | %25
w: sing prais- es un- to our God: O sing|prais- es, sing prais- es un- to the Lord our|
 B,4 z8 z2 z E,D,C,B,,A,, E,4 | z E,F,A, E,3 E, A,,4 z8 z2 A,2 F,2 E,D, | %27
w: King, un- to the Lord our King|un- to the Lord our King. For God is the|
 C,2 E,2 B,,2 B,,2 E,4 z4 z2 C,C, D,2 E,2 A,,B,, x2 | C,A,, D,2 C,2 D,E,F,D, (_G,2 F,2) E,4 D,4 | %29
w: King of all the earth: sing ye prais- es with the|un- der- stand- ing, with the un- der- stand * * ing.|
 z4 A,2 C4 G,4 B,3 B, F,2 (A,4 G,4) F,4 | z4 z2 F,2 A,A, A,2 F,2 D,2 A,2 C,2 D,2 x6 | %31
w: God reign- eth o- ver the hea * then:|God sit- teth up- on, up- on his ho-|
 B,,2 F,4 z8 z8 z4 z2 F,2 A,A, A,2 | A,2 G,2 A,2 F,2 E,4 E,4 A,,4 z4 z2 | %33
w: \-ly seat, God sit- teth up-|\-on, up- on his ho- ly seat.|
 z4 A,2 A,2 G,F, C2 B,A, D2 C2 z4 x10 | z8 z2 A,A, G,2 F,2 E,2 D,D, C,2 B,,B,, | %35
w: For God, which is high- ly ex- alt- ed,|doth de- fend the earth, as it were with a|
 A,,4 A,3 B, G,2 A,A, (F,2 E,2) A,,2 z8 x8 | %36
w: shield. Glo- ry be to the Fa * ther.|
 z4 z2 E,3 F, D,2 E,E, (C,2 B,,2) E,2 C,2 B,,3 B,, E,2 | %37
w: glo- ry be to the Fa * ther, and to the Son,|
 F,2 D,2 E,2 B,,4 z2 E,2 A,2 G,2 A,2 z4 G,2 A,2 E,2 B,2 B,2 | E,4 z8 z8 z4 | %39
w: and to the Son, and to the Son, and to the Ho- ly|Ghost;|
 z8 z2 A,A, F,2 C,2 x10 | D,2 A,2 F,2 C,2 D,2 A,,2 z8 z4 x4 | z8 z2 E,2 =D,D, E,2 B,,2 z4 z2 x10 | %42
w: As it was in|the be- gin- ning, is now,|and ev- er shall be|
 z2 F,2 =E,2 F,2 C,2 C,2 F,2 D,2 C,C, D,2 A,,2 z2 | z4 z2 E,2 A,4 F,4 G,2 (A,2 E,4) A,8 | x24 | %45
w: world with- out end. A- men, and ev- er shall be,|world with- out end. A * men.||
 x24 | x24 | x32 | %48
w: |||
V:8
 z8 z8 z4 A,2 A,G, F,2 |"^This edition  Andrew Sims 2009" F,2 E,2 E,2 z4 A,2 A,A, F,3 A, D,2 A,,2 | %2
w: O clap your hands|to- ge- ther, O clap your hands to- ge- ther,|
 E,2 C,2 E,4 A,,4 z8 | z2 B,2 B,6 B,B, B,6 G,G, | C2 F,2 C,2 C,2 F,4 z8 z2 | %5
w: all ye peo- ple;|O sing un- to God with the|voice of me- lo- dy.|
 z8 G,G, A,2 F,2 B,2 (E,F,)G,E, A,4 G,2 | z8 z4 z2 A,,2 D,F, E,2 D,3 C, B,,2 B,,2 | %7
w: For the Lord is high and * to be fear- ed;|He is the great King of all the|
 A,,4 A,2 B,3 A, B,2 CB,(A,G,F,E,)D,C, B,,2 E,2 | A,,4 z8 A,,2 A,3 G, A,2 B,2 G,2 F,2 F,2 | %9
w: earth, he is the great King, the great * * * King of all the|earth, he is the great King of all the|
 E,4 z4 z2 E,4 E,E, E,4 z2 A,4 A,A, A,2 A,2 | _G,2 D,2 A,6 D,2 E,4 z2 =G,G, A,2 | %11
w: earth. He shall sub- due, he shall sub- due the|peo- ple un- der us, and the na-|
 B,2 G,2 A,2 E,8 E,4 | x20 | z4 z2 E,2 C,2 A,,2 A,3 G, F,3 E, D,2 B,,2 C,4 C,4 | %14
w: \-tions un- der our feet.||He shall choose out an he- ri- tage for us, for|
 F,4 z8 z4 z2 B,,B,, C,2 | D,D, E,3 F, G,2 A,2 E,8 !fermata!A,,4 | x22 | %17
w: us, ev'n the wor-|\-ship of Ja- cob, whom he lov- ed.||
 z8 z2 A,,2 A,,A,, D,4 E,F,_G,E, x10 | F,3 E, D,(C, B,,2) A,,4 z8 x2 | %19
w: God is gone up with a mer- ry|noise, a mer- ry * noise,|
 z4 D,2 D,D, _G,4 A,B,_CA, x6 | B,3 (A, _G,2) E,2 A,2 A,>A, !courtesy!_G,3 F, E,4 x2 | %21
w: God is gone up with a mer- ry|noise, and * the Lord with the sound of the|
 F,F, A,4 (!courtesy!=G,F,) A,2 _G,A, F,2 D,D, E,2 x4 | A,,A,, E,4 A,,4 z2 A,A, D2 A,2 z2 z A, | %23
w: trum- pet, and the * Lord with the sound of the trum-|\-pet, the trum- pet. O sing prais- es, sing|
 D,2 A,2 z8 z2 z E, A,2 A,A, D,2 A,2 E,4 | z2 E,E, A,2 E,2 z2 z E, A,2 E,2 z4 | %25
w: prais- es, sing prais- es un- to our God:|O sing prais- es, sing prais- es|
 z2 z B, A,G,F,E, B,2 B,,2 E,4 z4 z2 z E, | %26
w: un- to the Lord our King, our King, un-|
 D,C,B,,A,, E,4 z2 A,2 F,2 E,D, C,2 D,2 A,,2 A,,2 D,2 z2 | %27
w: to the Lord our King. For God is the King of all the earth:|
 z4 z2 B,B, G,2 E,2 A,B,CA, D2 C2 F,F,G,E, A,2 x2 | A,2 z8 z8 z4 | %29
w: sing ye prais- es with the un- der- stand- ing, with the un- der- stand-|\-ing.|
 D,2 F,4 C,4 E,3 E, B,,2 D,4 A,,2 A,,2 C,4 F,4 | z2 F,2 D,D, D,2 D,2 C,2 D,2 D,2 A,,2 z4 x6 | %31
w: God reign- eth o- ver the hea- then, the hea- then:|God sit- teth up- on his ho- ly seat,|
 z4 F,2 B,B, B,2 B,2 =A,2 B,2 C,2 D,2 B,,2 F,8 z4 | z8 z8 z2 A,2 A,2 G,F, C2 | %33
w: God sit- teth up- on, up- on his ho- ly seat.|For God, which is high-|
 B,A, D2 C2 z8 z2 A,A, G,2 F,2 x10 | E,2 DD C2 B,B, A,2 z8 B,B,E, A,2 G, | %35
w: \-ly ex- alt- ed, doth de- fend the|earth, as it were with a shield, as it were with a|
 A,4 z4 z2 A,3 B, G,2 A,2 F,2 E,2 A,,2 z2 x8 | z8 A,3 B, G,2 A,2 F,2 E,E, z4 B,3 C | %37
w: shield. Glo- ry be to the Fa- ther,|glo- ry be to the Fa- ther, glo- ry|
 A,2 B,2 G,2 F,4 E,4 z2 E,2 A,2 E,2 B,4 z8 | z2 C,2 D,2 A,,2 E,2 E,2 A,,4 z8 | z8 z4 z2 A,A, x10 | %40
w: be to the Fa- ther, and to the Son,|and to the Ho- ly Ghost;|As it|
 F,2 C,2 D,2 A,2 F,2 C,2 D,2 A,,2 z8 x4 | z8 z8 z2 B,2 =A,A, B,2 x10 | %42
w: was in the be- gin- ning, is now,|and ev- er shall|
 F,2 F,2 C2 A,2 G,2 G,2 F,2 z8 A,2 | G,2 A,2 E,4 z2 A,,2 D,4 E,4 E,4 A,,8 | x24 | x24 | x24 | x32 | %48
w: be, world with- out end. A- men, world|with- out end, with- out end. A- men.|||||

